!!!!SEGMENT: pl-wumfc--r282--002-018_paderewski-ignacy-jan--exercises-2-exercise-18.krn
!!!cenid: 18xx:3193
!!!COM: Paderewski, Ignacy Jan
!!!COM-rismid: pe30029943
!!!CDT: 1860/11/18-1941/06/29
!!!CNT: Polish
!!!GTL: [Exercises 2]
!!!OTL: [Exercise] 18
!!!OMV: 018
!!!PDT:
!!!AGN:
!!!SMS-siglum: PL-Wumfc
!!!SMS-shelfmark: R282
!!!SMS-shelfwork: 002-018 G
!!!SMS-variant:
!!!SMS-altvar:
!!!NIFC-rismid: 1001158933
!!!URL-scan: http://repozytorium.nifc.pl/skany/pl-wumfc--r282
!!!ONB-nifc: UWAGA: druga grupa ćwiczeń od skanu 0008
!!!OMD:
!!!key: G
**kern	**kern
*part1	*part1
*staff2	*staff1
*I"Fortepian	*I"Fortepian
*Ipiano	*Ipiano
*ICklav	*ICklav
*clefF4	*clefG2
*k[f#]	*k[f#]
*G:	*G:
*M4/4	*M4/4
*^	*^
!	!	!LO:TX:b:t=C.f.	!
!	!	!LO:TX:t=P:problem:brak metrum	!
4G/	4G\	4d/	4B\
=1	=1	=1	=1
4G/	4E\	4e/	4B\
4F#/	4D\	4f#/	4d\
4E/	4AA\	4a/	4c\
4D/	4BB\	4g/	4d\
=2	=2	=2	=2
4G/	4GG\	4b/	4d\
4A/	4C\	4a/	4c\
4B;>/	4GG;>\	4g;>/	4d\
4B/	4E\	4g/	4B\
=3	=3	=3	=3
4B/	4D\	4f#/	4f#\
4B/	4E\	4g/	[<4e\
4A/	4C\	4cc/	4e\]
4G/	4BB\	4dd/	4g\
=4	=4	=4	=4
4c/	4AA\	4cc/	4f#\
4B/	4BB\	4g/	4d\
4A;>/	4D;\<	4f#;</	4d\
4G/	4G\	4e/	4e\
=5	=5	=5	=5
4A/	4F#\	4f#/	4d\
4B/	4E\	4g/	4e\
4A/	4F#\	4a/	4d\
4G/	4E\	4b/	4g\
=6	=6	=6	=6
4E/	4C\	4cc/	2a\
4F#/	4D\	4a/	.
4G;>/	4GG;<\	4b;>/	4g;<\
4d/	[<4GG\	4b/	4g\
!!LO:LB:g=original
=7	=7	=7	=7
4B/	4GG\]	4dd/	4d\
4G/	4BB\	4b/	4g\
4A/	4C\	4a/	2e\
4c/	4AA\	4e/	.
=8	=8	=8	=8
4B/	4D\	4f#/	[<4d\
4A/	4FF#\	4a/	4d\]
4G;>/	4GG\	4b;>/	4B\
*v	*v	*	*
*	*v	*v
==	==
*-	*-
!!!system-decoration: [(s1,s2)]
!!!RDF**kern: < = below
!!!RDF**kern: > = above
!!!ENC: Filip Voros
!!!END: 2021-11-13
!!!ENC: Marta Chmielewska
!!!END: 2021-11-16
